X:5670
T:Rothiemurcus Rant
O:england
C:Trad
S:Photocopy, Potomac Valley Scottish Fiddle Club
I:speed 220
M:Cl
K:C
|: G2 | E3DE3C E2G2 G4 | c3GA3G c3GAc3 | E3DE3C EG3G3c | Ac3G3c ED3 D2:|
|:f2| e4 d3c d3ed3B | c3de3d edcB c3G | AAA2 a3g e4 d3c | Ac3Gc3 E2D2 D2:|
|:f2 | eg3g3ag3ag3d | ea3a3b a3ba3g | eg3d3e c3de3c | Aa3g3e ed3 d2:|
g2 | e4 d2cde3 a4 | ge3e3d cA3A3c | G3Ac2d2 e4 dc3 | Ac3Gc3 ED3D3f|
e4 d3c de3 a4 | ge3e3d cA3A3ef | a3eg3d e4dc3 | Ac3Gc3 ED3 D2||


